assets/symbols/mulberry/shorts.svg

<svg height="850.394" viewBox="0 0 850.394 850.394" width="850.394" xmlns="http://www.w3.org/2000/svg"><g fill="#33a02c"><path d="m285.63 81.3h35.82v64.64h-35.82zm252.22 2.38h35.801v62.26h-35.801z"/><path d="m643.11 81.3v64.64h-69.46v-64.64zm0 64.64s20.069 109.9 38.909 204.7l-151.47-204.7zm-190.78 0v187.07c-14.811 31.49-53.71 24.08-53.71 24.08v-211.15zm85.52-62.26v62.26h-216.4v-64.64h252.2v2.38zm-100.95 29.94c0-6.82-5.53-12.35-12.351-12.35-6.82 0-12.35 5.53-12.35 12.35s5.53 12.35 12.35 12.35c6.821 0 12.351-5.53 12.351-12.35zm-115.45 32.32-151.7 205.02c18.37-94.87 36.24-205.02 36.24-205.02zm-115.46-64.64h79.64v64.64h-79.64z"/><path d="m741.58 708.85c5.62 29.101-267.95 53.721-267.95 53.721l-45.68-390.66-4.02.16-45.68 390.65s-273.56-24.609-267.95-53.71c13.58-70.43 32.72-225.97 53.09-325.99 2.11-10.35 4.24-21.1 6.36-32.06l151.7-205.02h77.17v211.15s38.899 7.41 53.71-24.08v-187.071h78.22l151.47 204.7c2.181 11.01 4.351 21.81 6.471 32.22 20.369 100.02 39.509 255.56 53.089 325.99z"/></g><circle cx="424.55" cy="113.62" fill="#787878" r="12.35"/><g fill="none" stroke="#000"><path d="m321.45 81.3h321.66v64.64h-69.46m-288.02 0h-79.64v-64.64h79.64m252.22 64.64h-216.4m-35.82-64.64h35.82v64.64h-35.82z" stroke-width="22.226"/><path d="m537.85 83.68h35.801v62.26h-35.801z" stroke-width="22.226"/><circle cx="424.55" cy="113.62" r="12.35" stroke-width="7.409"/><g stroke-width="22.226"><path d="m398.62 85.74v271.35s38.899 7.41 53.71-24.08v-247.27m-130.88 60.2-151.7 205.02-.01.01"/><path d="m643.11 145.94s20.069 109.9 38.909 204.7c2.181 11.01 4.351 21.81 6.471 32.22 20.37 100.02 39.51 255.56 53.09 325.99 5.62 29.101-267.95 53.721-267.95 53.721l-45.68-390.66-4.02.16-45.68 390.65s-273.56-24.609-267.95-53.71c13.58-70.43 32.72-225.97 53.09-325.99 2.11-10.35 4.24-21.1 6.36-32.06 18.37-94.87 36.24-205.02 36.24-205.02"/><path d="m530.43 145.78.12.16 151.47 204.7.12.17"/></g></g><path d="m0 0h850.394v850.394h-850.394z" fill="none"/></svg>

<svg xmlns="http://www.w3.org/2000/svg" width="850.394" height="850.394" viewBox="0 0 850.394 850.394" overflow="visible"><path fill="#33a02c" d="M285.63 81.3h35.82v64.64h-35.82zM537.85 83.68h35.801v62.26H537.85z"/><path fill="#33a02c" d="M643.11 81.3v64.64h-69.46V81.3zM643.11 145.94s20.069 109.9 38.909 204.7l-151.47-204.7H643.11zM452.33 145.94v187.07c-14.811 31.49-53.71 24.08-53.71 24.08V145.94h53.71zM537.85 83.68v62.26H321.45V81.3h252.2v2.38h-35.8zM436.9 113.62c0-6.82-5.53-12.35-12.351-12.35-6.82 0-12.35 5.53-12.35 12.35 0 6.82 5.53 12.35 12.35 12.35 6.821 0 12.351-5.53 12.351-12.35zM321.45 145.94l-151.7 205.02c18.37-94.87 36.24-205.02 36.24-205.02H321.45zM205.99 81.3h79.64v64.64h-79.64z"/><path d="M741.58 708.85c5.62 29.101-267.95 53.721-267.95 53.721l-45.68-390.66-4.02.16-45.68 390.65s-273.56-24.609-267.95-53.71c13.58-70.43 32.72-225.97 53.09-325.99 2.11-10.35 4.24-21.1 6.36-32.06l151.7-205.02h77.17v211.15s38.899 7.41 53.71-24.08V145.94h78.22l151.47 204.7c2.181 11.01 4.351 21.81 6.471 32.22C708.86 482.88 728 638.42 741.58 708.85z" fill="#33a02c"/><circle cx="424.55" cy="113.62" r="12.35" fill="#787878"/><g fill="none" stroke="#000"><path stroke-width="22.226" d="M321.45 81.3H643.11v64.64h-69.46M285.63 145.94h-79.64V81.3h79.64M537.85 145.94H321.45M285.63 81.3h35.82v64.64h-35.82z"/><path stroke-width="22.226" d="M537.85 83.68h35.801v62.26H537.85z"/><circle cx="424.55" cy="113.62" r="12.35" stroke-width="7.409"/><path d="M398.62 85.74v271.35s38.899 7.41 53.71-24.08V85.74M321.45 145.94l-151.7 205.02-.01.01" stroke-width="22.226"/><path d="M643.11 145.94s20.069 109.9 38.909 204.7c2.181 11.01 4.351 21.81 6.471 32.22 20.37 100.02 39.51 255.56 53.09 325.99 5.62 29.101-267.95 53.721-267.95 53.721l-45.68-390.66-4.02.16-45.68 390.65s-273.56-24.609-267.95-53.71c13.58-70.43 32.72-225.97 53.09-325.99 2.11-10.35 4.24-21.1 6.36-32.06 18.37-94.87 36.24-205.02 36.24-205.02" stroke-width="22.226"/><path stroke-width="22.226" d="M530.43 145.78l.12.16 151.47 204.7.12.17"/></g><path fill="none" d="M0 0h850.394v850.394H0z"/></svg>
